app/img/logo.svg

<svg width="185pt" height="36" viewBox="0 0 185 27" xmlns="http://www.w3.org/2000/svg"><path fill="#00b05a" d="M3.79 14.11C-.96 10.69.89 1.39 7.06 1.04c3.67.31 8.22-1.23 11.03 1.88 1.51 1.38 1.83 3.46 2.33 5.33-2 .02-4 .01-6-.07-1.12-3.32-7.28-3.13-7.24.68 2.15 3 6.78 1.47 9.81 3.17 5.39 2.05 4.81 10.57-.2 12.75-5.66 3.63-16.05.93-15.98-6.79 1.94 0 3.87.02 5.81.08 1.49 2.37 4.71 3.18 7.15 1.76 1.32-.64 1.18-2.04.36-3.02-3.37-1.18-7.32-.54-10.34-2.7zM31.28 1.4C35.77.57 41.13.04 44.92 3.19c6.8 5.38 5.99 17.81-1.95 21.76-5.39 2.56-12.93 1.79-16.76-3.16-5.05-6.32-2.97-17.61 5.07-20.39zM54.01.95c2.14 0 4.28-.01 6.43 0 .03 6.35.11 12.7-.06 19.05 3.09.39 6.22.29 9.34.27.02 1.88.04 3.76.09 5.64-5.27.31-10.53.08-15.8.11-.02-8.36-.02-16.71 0-25.07zm27.19.13c4.44-.8 9.64-.73 13.18 2.49 6.51 5.77 5.21 18.18-3.04 21.7-4.78 1.69-10.79 1.66-14.71-1.99-7.06-6.06-4.84-19.8 4.57-22.2zm31.81-.12c2.13-.03 4.27-.04 6.4-.04.24 6.47-.2 12.95.23 19.41 3.02-.1 6.05-.07 9.08-.04.02 1.87.05 3.74.1 5.62-5.27.23-10.55.15-15.82.14 0-8.36-.01-16.73.01-25.09zm18.71.02c4.09-.04 8.18-.03 12.28.01-.01 1.82 0 3.63.02 5.45-.71-.03-2.12-.08-2.83-.11-.39 4.62-.11 9.26-.19 13.89.78.01 2.36.02 3.15.03.08 1.92.12 3.84.13 5.76-4.23.02-8.45.05-12.67.06-.06-1.83-.12-3.66-.21-5.49 1.12-.21 2.25-.43 3.38-.66-.06-4.38-.1-8.77.03-13.16-3.77.66-3.19-3.31-3.09-5.78zM148 1c5.26-.03 10.53-.2 15.79.08-.04 1.88-.05 3.77-.07 5.65-3.11-.01-6.23-.15-9.31.28 0 1.6-.02 3.21-.05 4.81 2.67.22 5.34.22 8.02.16.06 1.83.14 3.66.28 5.49-2.75.4-5.55.11-8.29.61.11 2.65.12 5.32.07 7.98l-6.43-.03C148 17.69 148 9.34 148 1zm21 0c5.23 0 10.45.02 15.68-.04.02 1.92.05 3.84.07 5.76-3.09.03-6.18.03-9.28-.01.17 1.02-.45 2.35.38 3.15 2.71.3 5.45.15 8.17.13-.03 1.93-.06 3.87-.1 5.8-2.92-.12-5.84-.07-8.74.2.25 1.38.08 2.9.75 4.17 3.01.25 6.05.11 9.07.1V26h-15.99c-.02-8.33-.01-16.67-.01-25z"/><path fill="#fff" d="M33.41 7.42c3.6-2.05 8.92.2 9.45 4.44 1.32 4.59-3.12 9.67-7.88 8.28-5.81-1.05-6.85-10.27-1.57-12.72zm48.95.01c3.64-2.08 8.97.2 9.52 4.47 1.26 4.59-3.15 9.61-7.91 8.24-5.78-1.09-6.83-10.19-1.61-12.71z"/></svg>

<?xml version="1.0" encoding="UTF-8" ?>
<!DOCTYPE svg PUBLIC "-//W3C//DTD SVG 1.1//EN" "http://www.w3.org/Graphics/SVG/1.1/DTD/svg11.dtd">
<svg width="185pt" height="27pt" viewBox="0 0 185 27" version="1.1" xmlns="http://www.w3.org/2000/svg">
<path fill="#00b05a" d=" M 3.79 14.11 C -0.96 10.69 0.89 1.39 7.06 1.04 C 10.73 1.35 15.28 -0.19 18.09 2.92 C 19.60 4.30 19.92 6.38 20.42 8.25 C 18.42 8.27 16.42 8.26 14.42 8.18 C 13.30 4.86 7.14 5.05 7.18 8.86 C 9.33 11.86 13.96 10.33 16.99 12.03 C 22.38 14.08 21.80 22.60 16.79 24.78 C 11.13 28.41 0.74 25.71 0.81 17.99 C 2.75 17.99 4.68 18.01 6.62 18.07 C 8.11 20.44 11.33 21.25 13.77 19.83 C 15.09 19.19 14.95 17.79 14.13 16.81 C 10.76 15.63 6.81 16.27 3.79 14.11 Z" />
<path fill="#00b05a" d=" M 31.28 1.40 C 35.77 0.57 41.13 0.04 44.92 3.19 C 51.72 8.57 50.91 21.00 42.97 24.95 C 37.58 27.51 30.04 26.74 26.21 21.79 C 21.16 15.47 23.24 4.18 31.28 1.40 Z" />
<path fill="#00b05a" d=" M 54.01 0.95 C 56.15 0.95 58.29 0.94 60.44 0.95 C 60.47 7.30 60.55 13.65 60.38 20.00 C 63.47 20.39 66.60 20.29 69.72 20.27 C 69.74 22.15 69.76 24.03 69.81 25.91 C 64.54 26.22 59.28 25.99 54.01 26.02 C 53.99 17.66 53.99 9.31 54.01 0.95 Z" />
<path fill="#00b05a" d=" M 81.20 1.08 C 85.64 0.28 90.84 0.35 94.38 3.57 C 100.89 9.34 99.59 21.75 91.34 25.27 C 86.56 26.96 80.55 26.93 76.63 23.28 C 69.57 17.22 71.79 3.48 81.20 1.08 Z" />
<path fill="#00b05a" d=" M 113.01 0.96 C 115.14 0.93 117.28 0.92 119.41 0.92 C 119.65 7.39 119.21 13.87 119.64 20.33 C 122.66 20.23 125.69 20.26 128.72 20.29 C 128.74 22.16 128.77 24.03 128.82 25.91 C 123.55 26.14 118.27 26.06 113.00 26.05 C 113.00 17.69 112.99 9.32 113.01 0.96 Z" />
<path fill="#00b05a" d=" M 131.72 0.98 C 135.81 0.94 139.90 0.95 144.00 0.99 C 143.99 2.81 144.00 4.62 144.02 6.44 C 143.31 6.41 141.90 6.36 141.19 6.33 C 140.80 10.95 141.08 15.59 141.00 20.22 C 141.78 20.23 143.36 20.24 144.15 20.25 C 144.23 22.17 144.27 24.09 144.28 26.01 C 140.05 26.03 135.83 26.06 131.61 26.07 C 131.55 24.24 131.49 22.41 131.40 20.58 C 132.52 20.37 133.65 20.15 134.78 19.92 C 134.72 15.54 134.68 11.15 134.81 6.76 C 131.04 7.42 131.62 3.45 131.72 0.98 Z" />
<path fill="#00b05a" d=" M 148.00 1.00 C 153.26 0.97 158.53 0.80 163.79 1.08 C 163.75 2.96 163.74 4.85 163.72 6.73 C 160.61 6.72 157.49 6.58 154.41 7.01 C 154.41 8.61 154.39 10.22 154.36 11.82 C 157.03 12.04 159.70 12.04 162.38 11.98 C 162.44 13.81 162.52 15.64 162.66 17.47 C 159.91 17.87 157.11 17.58 154.37 18.08 C 154.48 20.73 154.49 23.40 154.44 26.06 C 152.29 26.05 150.15 26.04 148.01 26.03 C 148.00 17.69 148.00 9.34 148.00 1.00 Z" />
<path fill="#00b05a" d=" M 169.00 1.00 C 174.23 1.00 179.45 1.02 184.68 0.96 C 184.70 2.88 184.73 4.80 184.75 6.72 C 181.66 6.75 178.57 6.75 175.47 6.71 C 175.64 7.73 175.02 9.06 175.85 9.86 C 178.56 10.16 181.30 10.01 184.02 9.99 C 183.99 11.92 183.96 13.86 183.92 15.79 C 181.00 15.67 178.08 15.72 175.18 15.99 C 175.43 17.37 175.26 18.89 175.93 20.16 C 178.94 20.41 181.98 20.27 185.00 20.26 L 185.00 26.00 C 179.67 26.00 174.34 26.00 169.01 26.00 C 168.99 17.67 169.00 9.33 169.00 1.00 Z" />
<path fill="#ffffff" d=" M 33.41 7.42 C 37.01 5.37 42.33 7.62 42.86 11.86 C 44.18 16.45 39.74 21.53 34.98 20.14 C 29.17 19.09 28.13 9.87 33.41 7.42 Z" />
<path fill="#ffffff" d=" M 82.36 7.43 C 86.00 5.35 91.33 7.63 91.88 11.90 C 93.14 16.49 88.73 21.51 83.97 20.14 C 78.19 19.05 77.14 9.95 82.36 7.43 Z" />
</svg>
